gsa/public/img/cpe/a:apache:http_server.svg

<?xml version="1.0" encoding="UTF-8" standalone="no"?>
<!-- Created with Inkscape (http://www.inkscape.org/) -->

<svg
   xmlns:dc="http://purl.org/dc/elements/1.1/"
   xmlns:cc="http://creativecommons.org/ns#"
   xmlns:rdf="http://www.w3.org/1999/02/22-rdf-syntax-ns#"
   xmlns:svg="http://www.w3.org/2000/svg"
   xmlns="http://www.w3.org/2000/svg"
   xmlns:xlink="http://www.w3.org/1999/xlink"
   xmlns:sodipodi="http://sodipodi.sourceforge.net/DTD/sodipodi-0.dtd"
   xmlns:inkscape="http://www.inkscape.org/namespaces/inkscape"
   width="52.509098"
   height="52.52018"
   viewBox="0 0 52.509098 52.52018"
   id="svg5160"
   sodipodi:version="0.32"
   inkscape:version="0.48.5 r10040"
   sodipodi:docname="a:apache:http_server.svg"
   version="1.0"
   inkscape:export-xdpi="27.42"
   inkscape:export-ydpi="27.42">
  <defs
     id="defs5162">
    <linearGradient
       x1="-3690.8999"
       y1="-3526.3"
       gradientTransform="matrix(0.5318,4e-4,-4e-4,0.5318,2070.8,1900.1)"
       x2="-3702.7"
       gradientUnits="userSpaceOnUse"
       y2="-3558.3"
       id="linearGradient11537">
      <stop
         id="stop11539"
         offset="0"
         stop-color="#4F0C81" />
      <stop
         id="stop11541"
         offset="0.16786039"
         stop-color="#690C73" />
      <stop
         id="stop11543"
         offset="0.33403599"
         stop-color="#9A0A5B" />
      <stop
         id="stop11545"
         offset="0.49836209"
         stop-color="#C20748" />
      <stop
         id="stop11547"
         offset="0.57439929"
         stop-color="#E0053A" />
      <stop
         id="stop11549"
         offset="0.64262944"
         stop-color="#F20032" />
      <stop
         id="stop11551"
         offset="0.74175435"
         stop-color="#FA002F" />
      <stop
         id="stop11553"
         offset="1"
         stop-color="#F7EE5F" />
    </linearGradient>
    <linearGradient
       inkscape:collect="always"
       id="linearGradient13960">
      <stop
         style="stop-color:white;stop-opacity:1;"
         offset="0"
         id="stop13962" />
      <stop
         style="stop-color:white;stop-opacity:0;"
         offset="1"
         id="stop13964" />
    </linearGradient>
    <linearGradient
       id="linearGradient3898">
      <stop
         style="stop-color:#dcdcdc;stop-opacity:1;"
         offset="0"
         id="stop3900" />
      <stop
         style="stop-color:white;stop-opacity:1;"
         offset="1"
         id="stop3902" />
    </linearGradient>
    <linearGradient
       inkscape:collect="always"
       xlink:href="#linearGradient3898"
       id="linearGradient13956"
       x1="46.591862"
       y1="89.585007"
       x2="43.591812"
       y2="-74.733185"
       gradientUnits="userSpaceOnUse" />
    <linearGradient
       inkscape:collect="always"
       xlink:href="#linearGradient13960"
       id="linearGradient13966"
       x1="26.48"
       y1="1.3939171"
       x2="26.48"
       y2="52.84341"
       gradientUnits="userSpaceOnUse" />
    <linearGradient
       inkscape:collect="always"
       xlink:href="#linearGradient11537"
       id="linearGradient11560"
       gradientUnits="userSpaceOnUse"
       x1="6.6477709"
       y1="35.695736"
       x2="33.066238"
       y2="17.24119" />
  </defs>
  <sodipodi:namedview
     id="base"
     pagecolor="#ffffff"
     bordercolor="#666666"
     borderopacity="1.0"
     inkscape:pageopacity="0.0"
     inkscape:pageshadow="2"
     inkscape:zoom="11"
     inkscape:cx="39.860278"
     inkscape:cy="22.864967"
     inkscape:current-layer="layer1"
     showgrid="false"
     inkscape:document-units="px"
     inkscape:grid-bbox="true"
     inkscape:window-width="1680"
     inkscape:window-height="1030"
     inkscape:window-x="-3"
     inkscape:window-y="-3"
     showguides="true"
     inkscape:guide-bbox="true"
     inkscape:window-maximized="1">
    <sodipodi:guide
       orientation="vertical"
       position="393.92276"
       id="guide5230" />
    <sodipodi:guide
       orientation="vertical"
       position="438.14907"
       id="guide5236" />
  </sodipodi:namedview>
  <metadata
     id="metadata5165">
    <rdf:RDF>
      <cc:Work
         rdf:about="">
        <dc:format>image/svg+xml</dc:format>
        <dc:type
           rdf:resource="http://purl.org/dc/dcmitype/StillImage" />
        <dc:title />
      </cc:Work>
    </rdf:RDF>
  </metadata>
  <g
     id="layer1"
     inkscape:label="Layer 1"
     inkscape:groupmode="layer"
     transform="translate(-3.819132,-6.155729)">
    <g
       inkscape:label="shadow"
       style="display:inline"
       id="layer4"
       transform="translate(-392.7904,328.2799)" />
    <g
       inkscape:label="shadow"
       id="g3039"
       transform="translate(-840.833,182.2722)" />
    <g
       inkscape:label="color"
       id="g3041"
       transform="translate(-840.833,182.2722)">
      <path
         style="opacity:1;fill:#71c000;fill-opacity:1;stroke:#71c000;stroke-width:3.37896037;stroke-linejoin:bevel;stroke-miterlimit:4;stroke-dasharray:none;stroke-opacity:1"
         d=""
         id="path3043" />
      <path
         style="opacity:1;fill:#71c000;fill-opacity:1;stroke:#71c000;stroke-width:3.37896037;stroke-linejoin:bevel;stroke-miterlimit:4;stroke-dasharray:none;stroke-opacity:1"
         d=""
         id="path3045" />
      <path
         style="opacity:1;fill:#71c000;fill-opacity:1;stroke:#71c000;stroke-width:3.37896037;stroke-linejoin:bevel;stroke-miterlimit:4;stroke-dasharray:none;stroke-opacity:1"
         d=""
         id="path3047" />
    </g>
    <g
       inkscape:label="highlight"
       id="g3049"
       transform="translate(-840.833,182.2722)" />
    <g
       inkscape:label="text"
       id="g3089"
       transform="translate(-840.833,182.2722)" />
    <g
       id="g4774"
       inkscape:label="shadow"
       transform="translate(-1426.607,-26.2895)" />
    <g
       id="layer2"
       inkscape:label="color"
       transform="translate(-1426.607,-26.2895)">
      <path
         style="opacity:1;fill:#71c000;fill-opacity:1;stroke:#71c000;stroke-width:3.37896037;stroke-linejoin:bevel;stroke-miterlimit:4;stroke-dasharray:none;stroke-opacity:1"
         d=""
         id="path3422" />
      <path
         style="opacity:1;fill:#71c000;fill-opacity:1;stroke:#71c000;stroke-width:3.37896037;stroke-linejoin:bevel;stroke-miterlimit:4;stroke-dasharray:none;stroke-opacity:1"
         d=""
         id="path3426" />
      <path
         style="opacity:1;fill:#71c000;fill-opacity:1;stroke:#71c000;stroke-width:3.37896037;stroke-linejoin:bevel;stroke-miterlimit:4;stroke-dasharray:none;stroke-opacity:1"
         d=""
         id="path3428" />
    </g>
    <g
       id="g5777"
       inkscape:label="highlight"
       transform="translate(-1426.607,-26.2895)" />
    <g
       id="layer5"
       inkscape:label="text"
       transform="translate(-1426.607,-26.2895)" />
    <rect
       style="color:#000000;fill:url(#linearGradient13956);fill-opacity:1;fill-rule:evenodd;stroke:#2b2b2b;stroke-width:0.99699998;stroke-linecap:butt;stroke-linejoin:miter;stroke-miterlimit:4;stroke-opacity:1;stroke-dasharray:none;stroke-dashoffset:0;marker:none;visibility:visible;display:inline;overflow:visible"
       id="rect13948"
       width="50.730724"
       height="50.548958"
       x="4.9082913"
       y="7.219615"
       ry="7.0913997"
       rx="7.0913997" />
    <g
       id="g6007"
       transform="matrix(-3.973892e-3,0.629601,-0.629601,-3.973892e-3,295.5792,-273.6194)"
       inkscape:export-xdpi="27.42"
       inkscape:export-ydpi="27.42"
       style="fill:white">
      <g
         transform="translate(415.3267,354.416)"
         id="g6011"
         style="fill:white" />
    </g>
    <g
       id="g3192"
       inkscape:label="openvaslogo"
       style="display:inline"
       transform="translate(-996.7028,556.527)" />
    <path
       style="opacity:1;color:black;fill:none;fill-opacity:1;fill-rule:evenodd;stroke:url(#linearGradient13966);stroke-width:1;stroke-linecap:butt;stroke-linejoin:miter;marker:none;marker-start:none;marker-mid:none;marker-end:none;stroke-miterlimit:4;stroke-dasharray:none;stroke-dashoffset:0;stroke-opacity:1;visibility:visible;display:inline;overflow:visible"
       d="M 2.1818182,45.429271 L 2,7.792907 C 2,7.792907 3.0909091,2.1565434 7.4545455,1.9747252 C 11.818182,1.792907 44.909091,1.9747252 44.909091,1.9747252 C 44.909091,1.9747252 50.727273,1.9747252 50.909091,9.2474525 C 51.090909,16.52018 50.727273,45.974725 50.727273,45.974725"
       id="path13958"
       transform="translate(3.819132,6.155729)" />
    <g
       id="g11555"
       transform="matrix(0.95652011,-0.05745554,0.05764753,0.95333445,0.4291246,3.3278389)">
      <path
         inkscape:connector-curvature="0"
         style="fill:none;stroke:#ffffff;stroke-width:0.32224107;stroke-linecap:round;stroke-linejoin:round;stroke-miterlimit:4"
         d="M 7.090357,15.568843"
         id="path5846" />
      <path
         sodipodi:nodetypes="cccc"
         transform="translate(3.819132,6.155729)"
         inkscape:connector-curvature="0"
         id="path11331"
         d="M 7.7680818,28.290014 C 18.340631,10.823789 43.190129,3.6000263 48.272727,6.2474525 51.400608,9.3594334 31.902294,24.791618 18.749502,37.84258 13.602214,41.760127 3.7972658,35.831193 7.7680818,28.290014 z"
         style="fill:url(#linearGradient11560);fill-opacity:1;stroke:#000000;stroke-width:1px;stroke-linecap:butt;stroke-linejoin:miter;stroke-opacity:1" />
      <path
         id="path8194"
         d="M 52.424666,12.252138 C 48.443879,15.038804 32.619886,23.414941 26.216299,28.258874 21.064241,32.15275 16.675403,37.040136 12.619491,41.927938 11.571201,43.192205 9.8209871,45.609279 8.8893711,47.474787 8.4825218,48.96363 6.935514,51.586229 7.1294591,53.339658 13.819466,41.886748 17.020687,38.133645 27.557054,29.233147 31.817664,25.604618 49.134373,15.451957 52.424666,12.252138 z"
         inkscape:connector-curvature="0"
         style="fill:#000000;stroke:#000000;stroke-width:0.25385162" />
    </g>
  </g>
</svg>

<?xml version="1.0" encoding="UTF-8"?>
<svg width="52.509" height="52.52" version="1.0" viewBox="0 0 52.509 52.52" xmlns="http://www.w3.org/2000/svg" xmlns:xlink="http://www.w3.org/1999/xlink">
 <defs>
  <linearGradient id="linearGradient13956" x1="46.592" x2="43.592" y1="89.585" y2="-74.733" gradientUnits="userSpaceOnUse">
   <stop stop-color="#dcdcdc" offset="0"/>
   <stop stop-color="#fff" offset="1"/>
  </linearGradient>
  <linearGradient id="linearGradient13966" x1="26.48" x2="26.48" y1="1.3939" y2="52.843" gradientUnits="userSpaceOnUse">
   <stop stop-color="#fff" offset="0"/>
   <stop stop-color="#fff" stop-opacity="0" offset="1"/>
  </linearGradient>
  <linearGradient id="linearGradient11560" x1="6.6478" x2="33.066" y1="35.696" y2="17.241" gradientTransform="matrix(.5318 4e-4 -4e-4 .5318 2070.8 1900.1)" gradientUnits="userSpaceOnUse">
   <stop stop-color="#4F0C81" offset="0"/>
   <stop stop-color="#690C73" offset=".16786"/>
   <stop stop-color="#9A0A5B" offset=".33404"/>
   <stop stop-color="#C20748" offset=".49836"/>
   <stop stop-color="#E0053A" offset=".5744"/>
   <stop stop-color="#F20032" offset=".64263"/>
   <stop stop-color="#FA002F" offset=".74175"/>
   <stop stop-color="#F7EE5F" offset="1"/>
  </linearGradient>
 </defs>
 <g transform="translate(-3.8191 -6.1557)">
  <g transform="translate(-840.83 182.27)" fill="#71c000" stroke="#71c000" stroke-linejoin="bevel" stroke-width="3.379"></g>
  <g transform="translate(-1426.6 -26.29)" fill="#71c000" stroke="#71c000" stroke-linejoin="bevel" stroke-width="3.379"></g>
  <rect x="4.9083" y="7.2196" width="50.731" height="50.549" rx="7.0914" ry="7.0914" color="#000000" fill="url(#linearGradient13956)" fill-rule="evenodd" stroke="#2b2b2b" stroke-width=".997"/>
  <g transform="matrix(-.0039739 .6296 -.6296 -.0039739 295.58 -273.62)" fill="#fff"></g>
  <path transform="translate(3.8191 6.1557)" d="m2.1818 45.429-0.18182-37.636s1.0909-5.6364 5.4545-5.8182c4.3636-0.18182 37.455 0 37.455 0s5.8182 0 6 7.2727c0.18182 7.2727-0.18182 36.727-0.18182 36.727" color="black" fill="none" stroke="url(#linearGradient13966)"/>
  <g transform="matrix(.95652 -.057456 .057648 .95333 .42912 3.3278)">
   <path d="m7.0904 15.569" fill="none" stroke="#fff" stroke-linecap="round" stroke-linejoin="round" stroke-width=".32224"/>
   <path transform="translate(3.8191 6.1557)" d="m7.7681 28.29c10.573-17.466 35.422-24.69 40.505-22.043 3.1279 3.112-16.37 18.544-29.523 31.595-5.1473 3.9175-14.952-2.0114-10.981-9.5526z" fill="url(#linearGradient11560)" stroke="#000" stroke-width="1px"/>
   <path d="m52.425 12.252c-3.9808 2.7867-19.805 11.163-26.208 16.007-5.1521 3.8939-9.5409 8.7813-13.597 13.669-1.0483 1.2643-2.7985 3.6813-3.7301 5.5468-0.40685 1.4888-1.9539 4.1114-1.7599 5.8649 6.69-11.453 9.8912-15.206 20.428-24.107 4.2606-3.6285 21.577-13.781 24.868-16.981z" stroke="#000" stroke-width=".25385"/>
  </g>
 </g>
</svg>
